X:1

T:Robin Cushie

M:C

L:1/8

R:Air

N:”Brisk”

S:McGibbon – Scots Tunes, book III, pg. 77  (1762)

Z:AK/Fiddler’s Companion

K:G

G4G3B | ABAG “tr”E2 D>E | G4G3B | AGAB d2e2 | G4 (g/f/e/f/ g)B | (cB)”tr”(AG) E2 DE |

G2G2e2(dB) | d4G4 :: d2 edB2gB | (cB)”tr”(AG) E4 | d2 (e>d) ({c}B2) “tr”(A>G) | A2B2e4 |

d2efg2B2 | (cB)”tr”(AG) E2 (DE) | G2G2e2(dB) | d4G4 :|

 

ROBIN GOODFELLOW. English, Ballad Air (4/4 time). C Major. Standard tuning. ABCD. The air appears in Pills to Purge Melancholy (1720). Chappell (Popular Music of the Olden Time), vol. 1, 1859; pg. 162.

                       


ROBIN HOOD. English, Dance Air (6/4 time). G Dorian. Standard tuning. One part tuning. The air appears in a University of Cambridge lute MS. A version appears in Ravenscroft’s Pammelia (1609) that Chappell believes may be an earlier form. Robin Hood was the name of several inns or taverns in old England. At least one had this couplet on the sign under the figure:

***

Robin Hood in dead and gone

So call and drink with Little John.

***

Chappell (Popular Music of the Olden Time), vol. 1, 1859; pg. 273.

 

 

